images/icon/popup/envelope.svg

<svg width="15" height="12" fill="none" xmlns="http://www.w3.org/2000/svg"><path d="M7.6 8c-.4 0-.6-.1-1-.3L0 4v7c0 .6.4 1 .9 1h13.2c.6 0 .9-.4.9-1V4L8.5 7.7c-.4.2-.6.3-.9.3Zm6.5-8H.9C.4 0 0 .5 0 1v.8L7.5 6 15 1.8V1c0-.5-.4-1-.9-1Z" fill="#B3B3B3"/></svg>

<svg width="15" height="12" viewBox="0 0 15 12" fill="none" xmlns="http://www.w3.org/2000/svg">
<path d="M7.6 8C7.2 8 7 7.9 6.6 7.7L0 4V11C0 11.6 0.4 12 0.9 12H14.1C14.7 12 15 11.6 15 11V4L8.5 7.7C8.1 7.9 7.9 8 7.6 8ZM14.1 0H0.9C0.4 0 0 0.5 0 1V1.8L7.5 6L15 1.8V1C15 0.5 14.6 0 14.1 0Z" fill="#B3B3B3"/>
</svg>
